X:1
T:He Redeemed Me (Root)
T:He Redeemed Me (Root)
T:Charles H. Carroll & George F. Root
T:George Frederick Root, 1884
T:Public Domain Courtesy of the Cyber Hymnal™
T:Public Domain Courtesy of the Cyber Hymnal™
C:Charles H. Carroll & George F. Root
Z:Public Domain
Z:Courtesy of the Cyber Hymnal™
%%score ( 1 2 ) ( 3 4 )
L:1/8
Q:1/4=90
M:3/4
K:A
V:1 treble 
V:2 treble 
V:3 bass 
V:4 bass 
V:1
 [CE]>[CA] | [Ec]3 [DB] [CA]>[EG] | [DF] [FA]3 [EG]>[DF] | E3 E [CA]>[CA] | [EB]4 [EB]>[Ec] | %5
w: 1.~Would you|know why Christ, my|Sav- ior, Is my|cons- tant theme and|song? Why to|
w: 2.~Oh, the|days are full of|glad- ness That I|spend in His em-|ploy; I can|
w: 3.~Come, be-|lov- èd, bow be-|fore Him, Seek the|par- don of your|king, That on|
 [Ed]3 [Ec] [EB]>[EA] | [EG] [DF]3 [FA]>[DF] | [CE]3 [CF] [DG]>[DB] | [CA]4 || %9
w: seek His lov- ing|fa- vor Is my|joy the whole day|long?|
w: ban- ish care and|sad- ness In that|song of heav’n- ly|joy.|
w: earth you may a-|dore Him, And with|saints in glo- ry|sing.|
[M:4/4]"^Refrain" c>B | d2 G4 B>A | c2 E4 [EA]>[EG] | [DF][D^E][DF][DG] [^DA][DG] [DA]>[Dc] | %13
w: ||||
w: He re-|deemed me, He re-|deemed me, How the|ran- somed choir Re- peat it o’er and|
w: ||||
 [EB]6 c>B | d2 G4 B>A | c2 E4 [EA]>[EG] | [DF][DG][FA][FB] [Ec][Fd] [Ec]<[DB] | A6 x5 |] %18
w: |||||
w: o’er! He re-|deemed me, He re-|deemed me, Glo- ry,|glo- ry be to Him for- ev- er-|more.|
w: |||||
V:2
 x2 | x6 | x6 | E3 E x2 | x6 | x6 | x6 | x6 | x4 ||[M:4/4] x2 | x2 (D>DDD) x2 | x2 (C>CCC) x2 | %12
 x8 | x8 | x2 (D>DDD) x2 | x2 (C>CCC) x2 | x8 | (CFE<D C2) x5 |] %18
V:3
 [A,,A,]>[A,,A,] | [A,,A,]3 [A,,A,] [A,,A,]>[A,,A,] | [D,A,] [D,A,]3 [D,A,]>[D,A,] | %3
w: ~ ~|~ ~ ~ ~|~ ~ ~ ~|
 [C,A,]3 [C,A,] [F,A,]>[F,A,] | [E,G,]4 [E,G,]>[E,A,] | [E,B,]3 A, [E,G,]>[C,A,] | %6
w: ~ ~ ~ ~|~ ~ ~|~ ~ ~ ~|
 [D,A,] [D,A,]3 [D,A,]>[D,A,] | [E,A,]3 [E,A,] [E,B,]>[E,G,] | [A,,A,]4 ||[M:4/4] z2 | %10
w: ~ ~ ~ ~|~ ~ ~ ~|~||
 z2 [E,B,]>[E,B,] [E,B,][E,B,] z2 | z2 [A,,A,]>[A,,A,] [A,,A,][A,,A,] [C,A,]>[C,A,] | %12
w: He re- deemed me,|He re- deemed me, ~ ~|
 [D,A,][D,A,][D,A,][D,A,] [B,,A,][B,,A,] [B,,A,]>[B,,A,] | G,6 z2 | %14
w: ~ ~ ~ ~ ~ ~ ~ ~|~|
 z2 [E,B,]>[E,B,] [E,B,][E,B,] z2 | z2 [A,,A,]>[A,,A,] [A,,A,][A,,A,] [C,A,]>[C,A,] | %16
w: He re- deemed me,|He re- deemed me, ~ ~|
 [D,A,][D,A,][D,A,][D,A,] [E,A,][E,A,] [E,G,]<[E,G,] | A, x10 |] %18
w: ~ ~ ~ ~ ~ ~ ~ ~|~|
V:4
 x2 | x6 | x6 | x6 | x6 | x3 A, x2 | x6 | x6 | x4 ||[M:4/4] x2 | x8 | x8 | x8 | %13
 (E,>E,E,E, E,2) x2 | x8 | x8 | x8 | A,,6 A,G,<F, E,2 |] %18

